local/share/icons/dracula-icons-main/scalable/mimetypes/application-epub+zip.svg

<?xml version="1.0" encoding="UTF-8"?>
<svg xmlns="http://www.w3.org/2000/svg" xmlns:xlink="http://www.w3.org/1999/xlink" width="64" height="64" viewBox="0 0 64 64">
<defs>
<filter id="filter-remove-color" x="0%" y="0%" width="100%" height="100%">
<feColorMatrix color-interpolation-filters="sRGB" values="0 0 0 0 1 0 0 0 0 1 0 0 0 0 1 0 0 0 1 0" />
</filter>
<mask id="mask-0">
<g filter="url(#filter-remove-color)">
<rect x="-6.4" y="-6.4" width="76.8" height="76.8" fill="rgb(0%, 0%, 0%)" fill-opacity="0.15"/>
</g>
</mask>
<linearGradient id="linear-pattern-0" gradientUnits="userSpaceOnUse" x1="49.570999" y1="52.714001" x2="51.714001" y2="54.856998" gradientTransform="matrix(0.617345, 0, 0, 0.617345, -18.167916, -19.050025)">
<stop offset="0" stop-color="rgb(0%, 0%, 0%)" stop-opacity="1"/>
<stop offset="1" stop-color="rgb(0%, 0%, 0%)" stop-opacity="0"/>
</linearGradient>
<clipPath id="clip-0">
<rect x="0" y="0" width="17" height="17"/>
</clipPath>
<g id="source-156" clip-path="url(#clip-0)">
<path fill-rule="evenodd" fill="url(#linear-pattern-0)" d="M 14.816406 12.171875 L 11.113281 15.875 L 13.492188 15.875 C 14.226562 15.875 14.816406 15.285156 14.816406 14.550781 Z M 14.816406 12.171875 "/>
</g>
</defs>
<path fill-rule="nonzero" fill="rgb(51.764706%, 78.431373%, 20.784314%)" fill-opacity="1" d="M 3.441406 1.058594 L 13.492188 1.058594 C 14.222656 1.058594 14.816406 1.652344 14.816406 2.382812 L 14.816406 14.550781 C 14.816406 15.28125 14.222656 15.875 13.492188 15.875 L 3.441406 15.875 C 2.707031 15.875 2.117188 15.28125 2.117188 14.550781 L 2.117188 2.382812 C 2.117188 1.652344 2.707031 1.058594 3.441406 1.058594 Z M 3.441406 1.058594 "/>
<g mask="url(#mask-0)">
<use xlink:href="#source-156"/>
</g>
<path fill-rule="nonzero" fill="rgb(100%, 100%, 100%)" fill-opacity="1" d="M 8.464844 10.960938 L 5.972656 8.464844 L 8.464844 5.972656 L 9.296875 6.804688 L 7.636719 8.464844 L 8.464844 9.296875 L 10.960938 6.804688 L 8.789062 4.632812 C 8.609375 4.453125 8.324219 4.453125 8.144531 4.632812 L 4.632812 8.144531 C 4.453125 8.324219 4.453125 8.609375 4.632812 8.789062 L 8.144531 12.300781 C 8.324219 12.480469 8.609375 12.480469 8.789062 12.300781 L 12.300781 8.789062 C 12.480469 8.609375 12.480469 8.324219 12.300781 8.144531 L 11.792969 7.636719 Z M 8.464844 10.960938 "/>
</svg>

<svg width="64" height="64" version="1.1" viewBox="0 0 16.933 16.933" xmlns="http://www.w3.org/2000/svg" xmlns:xlink="http://www.w3.org/1999/xlink">
 <defs>
  <linearGradient id="a" x1="49.571" x2="51.714" y1="52.714" y2="54.857" gradientTransform="matrix(2.3333 0 0 2.3333 -68.667 -72.001)" gradientUnits="userSpaceOnUse">
   <stop offset="0"/>
   <stop stop-opacity="0" offset="1"/>
  </linearGradient>
 </defs>
 <g transform="scale(.26458)">
  <rect x="8" y="4" width="48" height="56" ry="5" fill="#84c835" style="paint-order:stroke fill markers"/>
  <path d="m56 46-14 14h9c2.77 0 5-2.23 5-5z" fill="url(#a)" fill-rule="evenodd" opacity=".15" stroke-width="8.8191" style="paint-order:stroke fill markers"/>
 </g>
 <path d="m8.4664 10.961-2.4942-2.4944 2.4942-2.4941 0.83147 0.83132-1.6629 1.6627 0.83142 0.83147 2.4942-2.4941-2.1727-2.1727c-0.17742-0.17757-0.4652-0.17757-0.64277 0l-3.5142 3.5142c-0.17742 0.17742-0.17742 0.4652 0 0.64277l3.5142 3.5141c0.17757 0.17757 0.46535 0.17757 0.64277 0l3.5142-3.5141c0.17742-0.17757 0.17742-0.46535 0-0.64277l-0.51016-0.51001z" enable-background="new" fill="#fff" stroke-width=".050576"/>
</svg>
